X: 4665
T: Boy In The Tree, The
R: reel
M: 4/4
K: Adorian
Bd|:eBdB GABd|e B3 AGED|EBAG ABcd|eage d2 Bd|
eBdB AGED|GDBD GABd|e2 dB GABd|egdB ABcd:|
|:e2ae beae|dedB GABd|e2ae beae|dBGB ABcd|
e a3 gafa|BcdB GABd|e a2 f (3gfe dB|GABG ABcd:|

